X: 36295
T: Seamus Ennis'
R: jig
M: 6/8
K: Gmajor
A|BGB def|gdc BAB|GBd gdB|ecA AdA|
BGB def|~g3 BAB|GBd gdc|BGG ~G2:|
|:B|dBd ~G3|dBd ~G3|ede ~A3|ede ~A3|
d2B e2A|d2B e2A|def gdc|BGG ~G2:|

